X:1
T:Three Jolly Huntsmen
B:Marrowbones, Ed Frank Purslow, EFDS, 1965
S: William Taylor, Petersfield Workhouse, Hants, August 1908
Z: Gardiner, H.1095
F: http://www.folkinfo.org/songs
M:2/4
L:1/16
K:D
A2 |d3d df3 |d4 F3G |A3B A3F |
w:Its of three jol-ly sports-men went out to hunt the
D6 d2 |e4 e3f |e4 d3e |f3e d3B |
w:fox, But where shall we find him a-monst the hills and
A6 AA |d2d2 d2fe |d4 F2GG |A2AA AAAA |
w:rocks? With my hip, hip hip and my hol-loa, And a-way went the mer-ry, mer-ry
D6 dd |e2e2 e2de |fffe d2f2 |g2ff eedd |
w:band, With my ran, tan, tan and my chi-vy, chi-vy chan, All o-ver the mer-ry, mer-ry
c4 z2 AA |dddd AAAA |d2A2 A4 |FGA2 FGA2 |
w:strand. With my u-gle, u-gle, u-gle went the bu-gle horn Fal-le-rol, fal-le-rol,
FGFE D4 |d2d2 d2e2 |f2e2 d2A2 |B2e2 d2c2 |
w:fal-le-ral-le-dee, Through the woods we'll go, brave boys, And through the woods we'll
d6 z2 |]
w:go
